packages/kaspersky-hexa-ui-icons/src/iconsSVGs/28x20/FlagBz.svg

<svg width="28" height="20" viewBox="0 0 28 20" fill="none" xmlns="http://www.w3.org/2000/svg">
<g clip-path="url(#clip0_5138_454)">
<rect width="28" height="20" rx="2" fill="white"/>
<mask id="mask0_5138_454" style="mask-type:luminance" maskUnits="userSpaceOnUse" x="0" y="0" width="28" height="20">
<rect width="28" height="20" rx="2" fill="white"/>
</mask>
<g mask="url(#mask0_5138_454)">
<path fill-rule="evenodd" clip-rule="evenodd" d="M0 17.3334H28V2.66669H0V17.3334Z" fill="#094995"/>
<path fill-rule="evenodd" clip-rule="evenodd" d="M0 2.66667H28V0H0V2.66667Z" fill="#D5182F"/>
<path fill-rule="evenodd" clip-rule="evenodd" d="M0 20H28V17.3333H0V20Z" fill="#D5182F"/>
<circle cx="14" cy="10" r="6" fill="white"/>
<path d="M14.3281 13.3174C14.6942 13.282 15.0198 13.5499 15.0557 13.916C15.0913 14.2824 14.8234 14.6088 14.457 14.6445C14.3066 14.6592 14.1539 14.667 14 14.667C13.8461 14.667 13.6934 14.6592 13.543 14.6445C13.1766 14.6088 12.9087 14.2824 12.9443 13.916C12.9802 13.5499 13.3058 13.282 13.6719 13.3174C13.7795 13.3279 13.8893 13.333 14 13.333C14.1107 13.333 14.2205 13.3279 14.3281 13.3174ZM10.4844 12.0225C10.7688 11.7888 11.1891 11.8299 11.4229 12.1143C11.5616 12.2831 11.7169 12.4384 11.8857 12.5771C12.1701 12.8109 12.2112 13.2312 11.9775 13.5156C11.7438 13.8 11.3235 13.8411 11.0391 13.6074C10.8031 13.4135 10.5865 13.1969 10.3926 12.9609C10.1589 12.6765 10.2 12.2562 10.4844 12.0225ZM16.5771 12.1143C16.8109 11.8299 17.2312 11.7888 17.5156 12.0225C17.8 12.2562 17.8411 12.6765 17.6074 12.9609C17.4135 13.1969 17.1969 13.4135 16.9609 13.6074C16.6765 13.8411 16.2562 13.8 16.0225 13.5156C15.7888 13.2312 15.8299 12.8109 16.1143 12.5771C16.2831 12.4384 16.4384 12.2831 16.5771 12.1143ZM9.33301 10C9.33301 9.84606 9.34082 9.69344 9.35547 9.54297C9.39125 9.17663 9.7176 8.90868 10.084 8.94434C10.4501 8.9802 10.718 9.30576 10.6826 9.67188C10.6721 9.77949 10.667 9.88926 10.667 10C10.667 10.1107 10.6721 10.2205 10.6826 10.3281C10.718 10.6942 10.4501 11.0198 10.084 11.0557C9.7176 11.0913 9.39125 10.8234 9.35547 10.457C9.34082 10.3066 9.33301 10.1539 9.33301 10ZM17.333 10C17.333 9.88926 17.3279 9.77949 17.3174 9.67188C17.282 9.30576 17.5499 8.9802 17.916 8.94434C18.2824 8.90868 18.6088 9.17663 18.6445 9.54297C18.6592 9.69344 18.667 9.84606 18.667 10C18.667 10.1539 18.6592 10.3066 18.6445 10.457C18.6088 10.8234 18.2824 11.0913 17.916 11.0557C17.5499 11.0198 17.282 10.6942 17.3174 10.3281C17.3279 10.2205 17.333 10.1107 17.333 10ZM11.0391 6.39258C11.3235 6.15889 11.7438 6.20001 11.9775 6.48438C12.2112 6.76882 12.1701 7.18909 11.8857 7.42285C11.7169 7.56161 11.5616 7.71686 11.4229 7.88574C11.1891 8.17011 10.7688 8.21124 10.4844 7.97754C10.2 7.74379 10.1589 7.3235 10.3926 7.03906C10.5865 6.80309 10.8031 6.58646 11.0391 6.39258ZM16.0225 6.48438C16.2562 6.20001 16.6765 6.15889 16.9609 6.39258C17.1969 6.58646 17.4135 6.80309 17.6074 7.03906C17.8411 7.3235 17.8 7.74379 17.5156 7.97754C17.2312 8.21124 16.8109 8.17011 16.5771 7.88574C16.4384 7.71686 16.2831 7.56161 16.1143 7.42285C15.8299 7.18909 15.7888 6.76882 16.0225 6.48438ZM14 5.33301C14.1539 5.33301 14.3066 5.34082 14.457 5.35547C14.8234 5.39125 15.0913 5.7176 15.0557 6.08398C15.0198 6.45006 14.6942 6.71798 14.3281 6.68262C14.2205 6.67214 14.1107 6.66699 14 6.66699C13.8893 6.66699 13.7795 6.67214 13.6719 6.68262C13.3058 6.71798 12.9802 6.45006 12.9443 6.08398C12.9087 5.7176 13.1766 5.39125 13.543 5.35547C13.6934 5.34082 13.8461 5.33301 14 5.33301Z" fill="#118014"/>
</g>
</g>
<defs>
<clipPath id="clip0_5138_454">
<rect width="28" height="20" fill="white"/>
</clipPath>
</defs>
</svg>

<svg xmlns="http://www.w3.org/2000/svg" width="28" height="20" fill="none" viewBox="0 0 28 20"><g clip-path="url(#a)"><rect width="28" height="20" fill="#fff" rx="2"/><mask id="b" width="28" height="20" x="0" y="0" maskUnits="userSpaceOnUse" style="mask-type:luminance"><rect width="28" height="20" fill="#fff" rx="2"/></mask><g mask="url(#b)"><path fill="#094995" fill-rule="evenodd" d="M0 17.3334h28V2.6667H0z" clip-rule="evenodd"/><path fill="#d5182f" fill-rule="evenodd" d="M0 2.667h28V0H0zM0 20h28v-2.667H0z" clip-rule="evenodd"/><circle cx="14" cy="10" r="6" fill="#fff"/><path fill="#118014" d="M14.3281 13.3174a.6667.6667 0 0 1 .1289 1.3271 4.7 4.7 0 0 1-.457.0225 4.7 4.7 0 0 1-.457-.0225.6667.6667 0 0 1 .1289-1.3271c.1076.0105.2174.0156.3281.0156s.2205-.0051.3281-.0156m-3.8437-1.2949a.667.667 0 0 1 .9385.0918c.1387.1688.294.3241.4628.4628a.6669.6669 0 0 1-.8466 1.0303 4.7 4.7 0 0 1-.6465-.6465.667.667 0 0 1 .0918-.9384m6.0927.0918a.6669.6669 0 0 1 1.0303.8466 4.7 4.7 0 0 1-.6465.6465.6669.6669 0 0 1-.8466-1.0303 3.36 3.36 0 0 0 .4628-.4628M9.3331 10q.0002-.2312.0224-.457a.667.667 0 0 1 .7285-.5987.6666.6666 0 0 1 .5986.7276A3.4 3.4 0 0 0 10.667 10c0 .1107.0051.2205.0156.3281a.6667.6667 0 0 1-1.3271.1289A4.7 4.7 0 0 1 9.333 10m7.9999 0c0-.1107-.0051-.2205-.0156-.3281a.6666.6666 0 0 1 .5986-.7276.667.667 0 0 1 .7285.5987 4.7 4.7 0 0 1 .0225.457c0 .1539-.0078.3066-.0225.457a.6667.6667 0 0 1-1.3271-.1289A3.4 3.4 0 0 0 17.333 10m-6.2939-3.6074a.667.667 0 0 1 .9384.0918.667.667 0 0 1-.0918.9385 3.36 3.36 0 0 0-.4628.4628.667.667 0 0 1-.9385.0918.667.667 0 0 1-.0918-.9384 4.7 4.7 0 0 1 .6465-.6465m4.9834.0918a.667.667 0 0 1 .9384-.0918c.236.1939.4526.4105.6465.6465a.667.667 0 0 1-.0918.9384.667.667 0 0 1-.9385-.0918 3.36 3.36 0 0 0-.4628-.4628.667.667 0 0 1-.0918-.9385M14 5.333c.1539 0 .3066.0078.457.0225a.6668.6668 0 0 1-.1289 1.3271A3.4 3.4 0 0 0 14 6.667c-.1107 0-.2205.0051-.3281.0156a.6668.6668 0 0 1-.1289-1.3271A4.7 4.7 0 0 1 14 5.333"/></g></g><defs><clipPath id="a"><path fill="#fff" d="M0 0h28v20H0z"/></clipPath></defs></svg>
